assets/icons/moduleIcons/rbs.svg

<svg width="50" height="50" viewBox="0 0 50 50" fill="none" xmlns="http://www.w3.org/2000/svg">
<path d="M16.18 3.29996C15.39 3.61996 15.25 4.12996 15.25 7.79996C15.25 11 15.3 11.46 15.67 11.8C15.9481 12.046 16.2995 12.1936 16.67 12.22C18.02 12.17 18.25 11.47 18.25 7.57996C18.25 4.41996 18.25 4.27996 17.69 3.71996C17.5297 3.47576 17.2852 3.29902 17.0031 3.22342C16.7209 3.14781 16.4209 3.17861 16.16 3.30996L16.18 3.29996ZM32.43 3.56996C31.87 3.98996 31.87 4.17996 31.78 7.18996C31.68 10.63 31.78 11.28 32.33 11.84C32.62 12.0807 32.9875 12.2083 33.3643 12.1991C33.7412 12.1899 34.102 12.0446 34.38 11.79C34.7 11.42 34.75 10.79 34.75 7.78996C34.75 3.93996 34.65 3.56996 33.59 3.28996C33.3853 3.24232 33.1719 3.24664 32.9693 3.30253C32.7667 3.35842 32.5813 3.46411 32.43 3.60996V3.56996ZM8.05996 8.30996C7.37161 8.7131 6.78356 9.26696 6.33996 9.92996C5.73996 10.93 5.64996 11.33 5.54996 13.37L5.45996 15.69H44.54L44.45 13.41C44.35 10.68 43.84 9.51996 42.36 8.53996C41.48 7.93996 41.2 7.88996 38.55 7.83996L35.67 7.74996V9.60996C35.67 11.28 35.67 11.61 35.07 12.16C34.7589 12.596 34.2957 12.8995 33.7717 13.0106C33.2477 13.1217 32.7012 13.0322 32.24 12.76C31.31 12.21 31 11.51 31 9.51996V7.79996H19V9.51996C19 11.52 18.76 12.21 17.79 12.76C17.3281 13.0299 16.7823 13.1181 16.259 13.0071C15.7356 12.8962 15.2725 12.5941 14.96 12.16C14.45 11.56 14.36 11.28 14.36 9.60996V7.79996H11.76C9.43996 7.79996 8.96996 7.79996 8.08996 8.30996H8.05996ZM5.50996 28.73C5.50996 42.05 5.50996 42.19 7.12996 43.63C7.58906 44.0597 8.1251 44.3989 8.70996 44.63C9.54996 44.86 40.5 44.86 41.34 44.63C41.9023 44.3846 42.4195 44.0466 42.87 43.63C44.49 42.19 44.49 42.05 44.49 28.73V17.08H5.48996V28.73H5.50996ZM15.21 22.09L15.16 26H6.80996L6.70996 22.1V18.25H15.29L15.21 22.09ZM24.54 21.91V25.57L23.33 25C22.3973 24.6091 21.3962 24.4079 20.385 24.4079C19.3737 24.4079 18.3726 24.6091 17.44 25C17.0773 25.1924 16.7032 25.3627 16.32 25.51C16.1727 24.3093 16.1258 23.0984 16.18 21.89V18.24H24.54V21.91V21.91ZM34 22.09V26L29.87 26.09L25.74 26.14V18.24H34.09V22.09H34ZM43.29 22.09V25.99H35.12L35.02 22.09V18.24H43.37L43.29 22.09ZM13.86 28.31C13.3646 29.2236 13.0788 30.2361 13.0235 31.2739C12.9681 32.3117 13.1445 33.3488 13.54 34.31C13.68 34.68 13.44 34.73 10.2 34.73H6.66996V27.06H14.56L13.86 28.31ZM24.54 30.86V34.72H16.18V27.06H24.54V30.86ZM34.05 30.86V34.72H30.43C27.09 34.72 26.81 34.72 27 34.3C27.1948 33.7215 27.3486 33.1301 27.46 32.53C27.6592 31.7573 27.6999 30.9522 27.5796 30.1633C27.4593 29.3745 27.1805 28.6182 26.76 27.94L26.16 27.06H34.05V30.86V30.86ZM43.33 30.86V34.72H35V27.06H43.35V30.86H43.33ZM14.84 36C15.21 36.32 15.25 36.78 15.25 40.08V43.79L12.14 43.7C9.44996 43.7 8.93996 43.56 8.38996 43.14C6.99996 42.1 6.80996 41.68 6.70996 38.52L6.61996 35.64H10.52C13.82 35.64 14.46 35.64 14.84 36.02V36ZM24.54 35.9C24.54 36.55 22.96 37.53 21.47 37.81C20.17 38.08 20.08 38.5 21.33 38.36C22.4077 38.19 23.447 37.8312 24.4 37.3C24.5518 38.3594 24.5987 39.4313 24.54 40.5V43.75H16.18V40.61C16.18 37.69 16.23 37.45 16.6 37.61C18.32 38.31 18.97 38.5 19.34 38.36C19.71 38.22 19.34 37.99 18.04 37.36C17.04 36.84 16.27 36.36 16.23 36.06C16.19 35.76 16.51 35.68 20.36 35.68C23.7 35.68 24.54 35.68 24.54 35.96V35.9ZM34.05 39.66V43.75H25.7V40.05C25.7 38.05 25.79 36.2 25.84 36.05C25.97 35.72 26.58 35.67 30.01 35.67H34.01L34.05 39.66ZM43.33 38.5C43.24 41.66 43.05 42.08 41.62 43.14C41.06 43.61 40.62 43.65 38.04 43.65H35.12L35.02 39.65V35.65H43.42L43.37 38.53L43.33 38.5Z" fill="#000"/>
</svg>

<svg xmlns="http://www.w3.org/2000/svg" viewBox="0 0 50 50"><g id="rbs"><path id="path1595" fill="#000" d="M16.18,3.3c-.79.32-.93.83-.93,4.5,0,3.2.05,3.66.42,4a1.69,1.69,0,0,0,1,.42c1.35-.05,1.58-.75,1.58-4.64,0-3.16,0-3.3-.56-3.86a1.19,1.19,0,0,0-1.53-.41Zm16.25.27c-.56.42-.56.61-.65,3.62-.1,3.44,0,4.09.55,4.65a1.56,1.56,0,0,0,2.05-.05c.32-.37.37-1,.37-4,0-3.85-.1-4.22-1.16-4.5a1.26,1.26,0,0,0-1.16.32ZM8.06,8.31A5.28,5.28,0,0,0,6.34,9.93c-.6,1-.69,1.4-.79,3.44l-.09,2.32H44.54l-.09-2.28c-.1-2.73-.61-3.89-2.09-4.87-.88-.6-1.16-.65-3.81-.7l-2.88-.09V9.61c0,1.67,0,2-.6,2.55a2.14,2.14,0,0,1-2.83.6C31.31,12.21,31,11.51,31,9.52V7.8H19V9.52c0,2-.24,2.69-1.21,3.24a2.15,2.15,0,0,1-2.83-.6c-.51-.6-.6-.88-.6-2.55V7.8h-2.6c-2.32,0-2.79,0-3.67.51ZM5.51,28.73c0,13.32,0,13.46,1.62,14.9a5,5,0,0,0,1.58,1c.84.23,31.79.23,32.63,0a5.48,5.48,0,0,0,1.53-1c1.62-1.44,1.62-1.58,1.62-14.9V17.08h-39V28.73Zm9.7-6.64L15.16,26H6.81l-.1-3.9,0-3.85h8.58Zm9.33-.18v3.66L23.33,25a7.62,7.62,0,0,0-5.89,0,10.17,10.17,0,0,1-1.12.51,21.74,21.74,0,0,1-.14-3.62V18.24h8.36v3.67Zm9.46.18L34,26l-4.13.09-4.13.05V18.24h8.35l0,3.85Zm9.29,0,0,3.9H35.12l-.1-3.9,0-3.85h8.35ZM13.86,28.31a7,7,0,0,0-.32,6c.14.37-.1.42-3.34.42H6.67V27.06h7.89l-.7,1.25Zm10.68,2.55v3.86H16.18V27.06h8.36v3.8Zm9.51,0v3.86H30.43c-3.34,0-3.62,0-3.43-.42a12.94,12.94,0,0,0,.46-1.77,5.91,5.91,0,0,0-.7-4.59l-.6-.88h7.89v3.8Zm9.28,0v3.86H35V27.06h8.35v3.8ZM14.84,36c.37.32.41.78.41,4.08v3.71l-3.11-.09c-2.69,0-3.2-.14-3.75-.56C7,42.1,6.81,41.68,6.71,38.52l-.09-2.88h3.9c3.3,0,3.94,0,4.32.38Zm9.7-.1c0,.65-1.58,1.63-3.07,1.91-1.3.27-1.39.69-.14.55a9.27,9.27,0,0,0,3.07-1.06,16.26,16.26,0,0,1,.14,3.2v3.25H16.18V40.61c0-2.92.05-3.16.42-3,1.72.7,2.37.89,2.74.75s0-.37-1.3-1c-1-.52-1.77-1-1.81-1.3s.28-.38,4.13-.38c3.34,0,4.18,0,4.18.28Zm9.51,3.76v4.09H25.7V40.05c0-2,.09-3.85.14-4,.13-.33.74-.38,4.17-.38h4Zm9.28-1.16c-.09,3.16-.28,3.58-1.71,4.64-.56.47-1,.51-3.58.51H35.12l-.1-4,0-4h8.4l-.05,2.88Z"/></g></svg>
